X: 4
T: Ballyoran, The
C: Sean Ryan
Z: leprecawn
S: https://thesession.org/tunes/436#setting52155
R: hornpipe
M: 4/4
L: 1/8
K: Gmaj
|:Bc|"G"(3dcB (3cBA "D" BGAF|"G" G2 (3AGF GABc|"G"dg (3gfg bgdB|"D" (3cBA BG ADFA|
"G"dcBd cBAF|"G"GDB,D GABc|"D7"dg (3gfg fg (3agf|"G"g2gfg2:|
|:Bc|"G"dg (3gfg bg (3gfg|"G"dg (3gfg edBG|"D7"FGAB cBce|"D7"(3agf (3gfe dcBc|
"G"dg (3gfg bg (3gfg|"G"dg (3gfg edBG|"D7"FGAB cADF|"G"AGGFG2:|
|:dc|"G" BDGB dgfg|"C" ec (3cBc Gceg|"D7" fd d^cd fg (3agf|"G"dg (3gfg bgdc|
"G" BDGB dgfg|"C" ec (3cBc Gceg|"D7" fd (3d^cd fg (3agf|"G" g2 "D7"(3agf "G" g2:|

